X:1
T:Respice Domine
T: adapted BMarble
T:Respice Domine
T:Copyright © 2017 by CPDL.  This edition can be fully distributed, duplicated, performed, and recorded. 
T:Copyright © 2017 by CPDL.  This edition can be fully distributed, duplicated, performed, and recorded. 
T:Copyright © 2017 by CPDL.  This edition can be fully distributed, duplicated, performed, and recorded. 
T:Copyright © 2017 by CPDL.  This edition can be fully distributed, duplicated, performed, and recorded. 
T:Copyright © 2017 by CPDL.  This edition can be fully distributed, duplicated, performed, and recorded. 
T:Copyright © 2017 by CPDL.  This edition can be fully distributed, duplicated, performed, and recorded. 
T:Copyright © 2017 by CPDL.  This edition can be fully distributed, duplicated, performed, and recorded. 
T:Copyright © 2017 by CPDL.  This edition can be fully distributed, duplicated, performed, and recorded. 
T:Copyright © 2017 by CPDL.  This edition can be fully distributed, duplicated, performed, and recorded. 
C:
C:adapted BMarble
Z:Copyright © 2017 by CPDL.  This edition can be fully distributed, duplicated, performed, and recorded.
Z:
%%score [ 1 2 3 4 ]
L:1/8
Q:1/2=104
M:4/4
K:D
V:1 treble nm="Soprano" snm="S."
V:2 treble nm="Alto" snm="A."
V:3 treble-8 transpose=-12 nm="Tenor" snm="T."
V:4 bass nm="Baritone" snm="Bar."
V:1
"^Introit, 13th S. after Pentecost: Psalm 73:Have regard, O Lord, to your covenant, and forsake not to the end the souls of your poor: arise, O Lord, and judge your cause, and forget not the voices of them that seek you.Vs:. O God, why hast you cast us off unto the end: why is your wrath enkindled against the sheep of your pasture?" z30 || %1
w: |
[M:4/2] A16 | z8 (A8 | B8 A8) | G8 (F6 G2 | A8) B4 d4- | (d4 c2 B2 A8) | (G8 E8) | %8
w: in|te-||sta- men- *|* tum, te-||sta- *|
 E4 (G6 F2 E2 D2 | E4) (D8 ^C4) | D16 | z16 | z16 | z16 | z16 | z16 | z16 | z8 E8 | (G8 F8) | %19
w: men- tum _ _ _|_ tu- *|um,|||||||ne|de- *|
 (G8 A8) | (A8 G8) | E8 z8 | G8 F4 A4- | A2 G2 G8 F4 | G16 | z16 | z16 | z16 | z16 | A8 (A8 | %30
w: re- *|lin- *|quas|in fi- *||nem:|||||et ju-|
 B8 A8) | G8 G8 | (E8 G8 | A8 G8) | G8 E4 G4- | G2 F2 E8 ^D4 | E16 | z16 | z16 | z16 | z16 | z16 | %42
w: |di- ca|cau- *||sam tu- *||am,||||||
 z16 | z4 (G8 E4 | G8 A8) | G8 z4 G4 | G4 A4 B4 =c4- | (c2 B2 A2 G2) A4 G4 | E4 (G6 F2) E4- | %49
w: |vo- *||ces quae-|ren- ti- um, quae-|* * * * ren- ti-|um, quae- * ren-|
 E4 D8 ^C4 | D16!fine! |] z38 ||[M:4/2] (A8 F8) | (G8 A8) | A8 A8 | z4 A8 A4 | A8 A8 | z4 A8 A4 | %58
w: * ti- um|te.||I- *|ra- *|tus est|fu- ror|tu- us,|su- per|
 A8 A8 | (A8 B8 | =c8 B8) | (A8 G8) | (G6 F2 G4) E4- | (E4 D8 ^C4) | D16 || z26 | z24 || %67
w: o- ves|pa- *||scu- *|ae _ _ tu-||ae?|||
[M:4/2] (A8 F8) | (G8 A8) | A8 A8 | z4 A8 A4 | A6 A2 A8 | z4 A8 A4 | A8 A8 | A8 B8 | (=c8 B8) | %76
w: Si- *|cut _|e- rat|in prin-|ci- pi- o,|nunc et|sem- per|et in|sae- *|
 A8 G8 | G6 F2 G4 E4- | E4 (D8 ^C4) | D16 |] %80
w: cu- la|sae- cu- lo- rum.|_ A- *|men.|
V:2
 z30 ||[M:4/2] E16- | E16 | (E8 F8 | E8) (D8 | C8) (B,6 C2 | D4 E8) D4 | E16- | E16 | A,16 | %10
w: |in|_|te- *|* sta-|* men- *|* * tum,|tu-||um,|
 z8 D8 | (D8 E8 | G12) G4 | G8 z4 G4- | G4 G4 G8 | E8 (G6 F2 | E2 D2 G8 F4) | G8 z4 G,4 | %18
w: et|a- *|* ni-|mas pau-|* pe- rum|tu- o- *||rum ne|
 (B,4 ^C4 D8) | (D6 E2 F4) G4- | (G4 F4) G8 | z4 (G6 F2 E2 D2) | E8 D4 F4 | E8 D8 | z8 G,8 | %25
w: de- * *|re- * * lin-|* * quas|in _ _ _|fi- nem, in|fi- nem:|ex-|
 (A,8 B,8 | A,8) ^C8 | (D6 C2 B,2 A,2) B,4- | B,4 A,8 G,4 | A,8 z8 | D8 (D8 | E8 B,8) | %32
w: sur- *|ge, ex-|ur- * * * ge|_ Do- mi-|ne,|et ju-||
 =C8 B,4 E4- | (E4 ^D4) E8 | z8 (B,8 | =C8) B,8 | z8 (E,8 | G,8) (F,8 | G,8 A,8) | z4 A,4 (A,8 | %40
w: di- ca cau-|* * sam|tu-|* am,|et|_ ne|_ _|o- bli-|
 B,8) A,8 | (G,6 F,2 G,4) A,4- | A,4 (G,8 F,4) | G,16 | z16 | z4 D4 D4 D4 | (E4 F4) (G2 F2 E2 D2 | %47
w: * vi-|sca- * * ris|_ vo- *|ces||quae- ren- ti-|um _ te, _ _ _|
 =C8) (D4 B,4) | (=C4 B,2 A,2 G,4) C4- | C4 B,4 (A,8 | A,16) |] z38 ||[M:4/2] A,16 | B,8 A,8 | %54
w: _ quae- *|ren- * * * ti-|* um te.|_||I-|ra- tus|
 (D6 E2 F8) | z4 F8 F4 | F8 F8 | z4 F8 F4 | F8 F8 | z4 (F4 D4 G4-) | G4 F4 G8 | D8 (D6 ^C2 | %62
w: est _ _|fu- ror|tu- us,|su- per|o- ves|pa- * *|* scu- ae,|pa- scu- *|
 D4) B,8 A,4- | (A,4 G,4 A,8) | A,16 || z26 | z24 ||[M:4/2] A,16 | (B,8 A,8) | (D6 E2) F8 | %70
w: * ae tu-||ae?|||Si-|cut _|e- * rat|
 z4 F8 F4 | F6 F2 F8 | z4 F8 F4 | F8 F8 | z4 F4 D4 G4- | G4 F4 G8 | D8 (D6 ^C2 | D4) B,8 A,4- | %78
w: in prin-|ci- pi- o,|nunc et|sem- per|et in sae-|* cu- la|sae- cu- *|* lo- rum.|
 A,4 (G,4 A,8) | A,16 |] %80
w: _ A- *|men.|
V:3
 (D2 A2) A2 (A2 =c2 B2) (c2 B2 c2 A2) A2 A8 ||[M:4/2] (A12 B4 | ^c8) (c8 | B8 c4) A4 | B8 A8 | %5
w: Re- * spi- ce _ _ Do- * * * mi- ne,|in _|_ te-|* * sta-|men- tum,|
 z16 | z8 A8 | (B8 =c8) | B8 (E8 | A4) (F4 E8) | D8 z4 d4- | (d4 B4 =c8) | B12 B4 | B8 z4 B4- | %14
w: |te-|sta- *|men- tum|_ tu- *|um, et|_ _ _|a- ni-|mas pau-|
 B4 B4 B8 | =c12 B4- | (B2 A2 G4 A8) | G16 | z16 | z8 d8 | d8 B8 | =c16- | c8 A4 d4 | (B4 =c4 A8) | %24
w: * pe- rum|tu- o-||rum||ne|de- re-|lin-|* quas in|fi- * *|
 G4 E8 e4- | (e4 ^d4) e8 | (^c6 =d2 e4) f4 | (g6 f2 e2 d2) e4- | e2 d2 d8 c4 | d8 d8 | (B4 G4) A8 | %31
w: nem, in fi-|* * nem:|ex- * * sur-|ge _ _ _ Do-|* * * mi-|ne, et|ju- * di-|
 B8 z8 | z16 | z8 B8 | B8 (G6 F2 | G4 A4 F8) | (E2 F2 G2 A2 B8) | z4 (B8 A2 G2 | B4 ^c4 d8) | D16 | %40
w: ca||cau-|sam tu- *||am, _ _ _ _|et _ _|_ _ _|ne|
 z4 d4 d8 | (B4 e6 d2) d4- | (d4 c4 d8 | B8) G4 B4- | (B2 A2 G8 F4) | G8 z4 B4 | B4 c4 (d4 e4) | %47
w: o- bli-|vi- * * sca-||* ris vo-||ces quae-|ren- ti- um _|
 A8 (^F4 G4) | (A4 G2 F2 E4) G4- | G4 F4 (E8 | D16) |] %51
w: te, quae- *|ren- * * * ti-|* um te.|_|
 (D2 G2 F2) (G2 A2) A2 A2 A2 A2 (A2 =c2) B2 B2 (B2 A2) (A4 B4) ||[M:4/2] A8 d8 | e8 ^c8 | %54
w: Ut _ _ quid _ De- us re- pu- li- * sti in fi- * nem: _|I- ra-|tus est|
 z4 d8 d4 | d8 d8 | z4 d8 d4 | d8 d8 | z4 d8 d4 | (d6 c2 B2 A2 d4-) | d4 =c4 d8 | z8 z4 B4- | %62
w: fu- ror|tu- us,|su- per|o- ves|pa- scu|ae _ _ _ _|_ tu- ae,|pa-|
 B8 G4 A4 | (F4 D4 E8) | D16 || (D2 G2 F2) (G2 A2) A2 A2 A2 A2 A2 A2 A4 | %66
w: * scu- ae|tu- * *|ae?|Glo- * * ri- * a Pa- tri et Fi- li- o,|
 A2 A2 (A2 =c2) B2 B2 (B2 A2) (A4 B4) ||[M:4/2] A8 d8 | e8 ^c8 | z4 d8 d4 | d6 d2 d8 | z4 d8 d4 | %72
w: et Spi- ri- * tu- i San- * cto. _|Si- cut|e- rat|in prin-|ci- pi- o,|nunc et|
 d8 d8 | z4 d8 d4 | (d6 c2 B2 A2 d4-) | d4 =c4 d8 | z8 z4 B4- | B8 (G4 A4) | F4 D4 E8 | D16 |] %80
w: sem- per|et in|sae- * * * *|* cu- la|sae-|* cu- *|lo- rum. A-|men.|
V:4
 z30 ||[M:4/2] A,16- | A,16 | G,8 F,8 | G,8 D,8 | A,8 G,4 B,4- | (B,4 A,2 G,2 F,8) | E,16- | %8
w: |in|_|te- sta-|men- tum,|te- sta- men-||tum|
 E,8 z4 (E,4 | ^C,4 D,4 A,,8) | (D,6 E,2 F,4) G,4- | (G,2 A,2 B,4 A,8) | E,12 E,4 | E,8 z4 E,4- | %14
w: _ tu-||um, _ _ et|_ _ _ _|a- ni-|mas pau-|
 E,4 E,4 E,8 | A,8 E,4 G,4- | (G,2 F,2 E,4 D,8) | z4 G,4 E,4 G,4- | (G,2 F,2 E,4) D,8 | G,8 D,8- | %20
w: * pe- rum|tu- o- rum|_ _ _ _|ne de- re-|* * * lin-|quas in|
 D,8 G,8 | =C,16- | C,8 D,8 | (E,4 =C,4) D,8 | z4 (G,8 F,2 E,2) | F,8 E,8 | z4 A,8 F,4 | %27
w: _ fi-|nem,|_ in|fi- * nem,|in _ _|fi- nem:|ex- sur-|
 (B,6 A,2 G,2 F,2) G,4- | (G,2 D,2 F,4) E,8 | D,8 z4 D,4 | G,8 F,8 | E,8 G,8 | A,8 (G,4 E,4 | %33
w: ge _ _ _ Do-|* * * mi-|ne, et|ju- di-|ca cau-|sam tu- *|
 F,8) E,8- | E,8 z4 E,4- | (E,4 A,,4) B,,8 | z4 (E,6 F,2 G,2 A,2 | B,8) B,,8 | E,8 (D,6 E,2 | %39
w: * am,|_ tu-|* * am,|et _ _ _|_ ne|o- bli- *|
 F,4) (G,8 F,4) | G,8 D,8 | z4 (G,8 F,4 | E,8) D,8 | z8 z4 G,4- | (G,2 F,2 E,4 D,8) | G,,4 G,12 | %46
w: * vi- *|sca- ris|vo- *|* ces,|vo-||ces quae-|
 E,4 A,4 (G,4 =C,4) | =F,8 (D,4 E,4) | =C,8 z4 C,4- | C,4 D,4 (A,,8 | D,16) |] z38 || %52
w: ren- ti- um _|te, quae- *|ren- ti-|* um te.|_||
[M:4/2] A,8 (D,4 F,4) | (E,8 F,8) | D,8 z4 D,4- | D,4 D,4 D,8 | D,8 z4 D,4- | D,4 D,4 D,8 | %58
w: I- ra- *|tus- *|est fu-|* ror tu-|us, su-|* per o-|
 D,8 z4 D,4- | D,4 D,4 (G,8 | A,8 G,4) G,4- | G,4 F,4 G,8 | z8 z4 (=C,4 | A,,4 B,,4 A,,8) | D,16 || %65
w: ves pa-|* scu- ae,|_ _ pa-|* scu- ae|tu-||ae?|
 z26 | z24 ||[M:4/2] A,8 (D,4 F,4) | (E,8 F,8) | D,8 z4 D,4- | D,4 D,4 D,6 D,2 | D,8 z4 D,4- | %72
w: ||Si- cut _|e- *|rat in|_ prin- ci- pi-|o, nunc|
 D,4 D,4 D,8 | D,8 z4 D,4- | D,4 D,4 (G,8 | A,8) G,4 G,4- | (G,4 F,4) G,8 | z8 z4 =C,4 | %78
w: _ et sem-|per et|_ in sae-|* cu- la|_ _ sae-|cu-|
 A,,4 B,,4 A,,8 | D,16 |] %80
w: lo- rum. A-|men.|

